!!!OTL: 658b. Blumenbrechen.
!!!ODT: 1846
!!!ARE: Europa, Mitteleuropa, Deutschland, Hessen, Odenwald, Neunkirchen
!!!SCT: E0658A
!!!TXL: @@DE
!!!YEM: Copyright 1995, estate of Helmut Schaffrath.
**kern	**text
*ICvox	*
*M4/4	*
*met(c)	*
*k[b-e-a-]	*
*E-:	*
!LO:TX:a:t=Aus Neunkirchen im Odenwald 1846.	!
{4b-	Er-
=1	=1
4cc	-laub'n
4b-	Sie,
4a-	Al-
4f	-ler-
=2	=2
(4e-	-ſchön-
4g)	.
4g}	-ſte,
{4g	in
=3	=3
4f	Gar-
4a-	-ten
4a-	ein-
4cc	-ʒu-
=4	=4
2b-	-gehn!
4r}	.
{4b-	Jch
=5	=5
4cc	ſe-
4b-	-he
4a-	ei-
4f	-ne
=6	=6
(4e-	Blu-
4g)	.
4g}	-me
{4g	von
=7	=7
4b-	fer-
4b-	-ne
4a-	ja
4f	da
=8	=8
2e-	ſtehn.
4r}	.
{4b-	Hal-
=9	=9
4cc	-li,
4b-	hal-
4a-	-lo,
4f	hal-
=10	=10
4e-	-li,
4g	hal-
4g	-lo,
4r}	.
=11	=11
{4f	val-
8a-	-la-
8a-	-le-
4a-	-ri,
4a-	juch-
=12	=12
4g	-hei-
4b-	-ſa-
4b-	-ſa,
8r}	.
{8b-	ich
=13	=13
4cc	ſe-
4b-	-he
4a-	ei-
4f	-ne
=14	=14
(4e-	Blu-
4g)	.
4g}	-me
{4g	von
=15	=15
4b-	fer-
4b-	-ne
4a-	ja
8r	.
8f	da
=16	=16
2e-	ſtehn
4r}	.
==	==
!!!AGN: Liebes - Lied
!!!ONB: ESAC (Essen Associative Code) Database: ERK2
!!!AMT: simple quadruple
!!!AIN: vox
!!!EED: Helmut Schaffrath
!!!EEV: 1.0
!!!GTL: Liebeslieder [Neuere (aus dem 18. bis 19. Jahrh.) - Liebeslust]
!!!URL-scan: https://rosdok.uni-rostock.de/mcrviewer/recordIdentifier/rosdok_ppn745177662/iview2/phys_0466.iview2?x=189.63181962357817&y=826.983515881002&scale=0.7029437510502773&rotation=0&layout=singlePageLayout
!!!ENC: Anna Maria Matuszewska
!!!EEV: 2024/12/12
*-	*-
